X:3023
T:Christmas Eve
M:C
L:1/8
K:G Major
GE|DB,DE GFGA|B2dB ABGB|ABGE DB,DE|G2BG ABGE|!
DB,DE GFGA|B2dB ABGA|BAA2 GEBG|ABGF G2:|!
GA|BABd edeg|abge g2eg|a2ge gage|dedB A2GA|!
BABd edeg|abge g2eg|a2ge d2BG|ABGF G2:|!
dc|BGG2 dGBd|egg2 egdc|BGG2 B2AG|EAA2 EAA2|!
BGG2 dGBd|egg2 egga|bgaf gedB|ABGF G2:|!


